X: 071093
T: Green Grow the Rushes
S: "Johnny O'Leary of Sliabh Luachra" (#25)
Z: B.Black
Q: 350
L: 1/8
M: 12/8
R: slide
K: G
G3 G2A B/c/BG G2B|A2B c^cd e2A A2B|
c2d e/f/ed B2A d/e/dB|ABc B2A G2E D2A|
G3 G2A B/c/BG G2B|A2B c^cd e2A A2B|
c^cd e/f/ed B2A d/e/dB|ABc B2A G2E D3 ||
g3 g2f g2e d2f|eaa a2b aag e2f|
gfg g2e d2e d2B|ABc B2A G2E D3|
g3 g2d g2e d2f|e2a a2b a/b/ag e2f|
gfg g2e d2e d2B|ABc B2A G2E D2E||\
"final" G4 ||
